.local/share/icons/Gruvbox-Plus-Dark/actions/16/tools-media-optical-copy.svg

<svg xmlns="http://www.w3.org/2000/svg" width="16" height="16" version="1.1" viewBox="0 0 16 16">
 <defs>
  <style id="current-color-scheme" type="text/css">
   .ColorScheme-Text { color:#ebdbb2; } .ColorScheme-Highlight { color:#458588; }
  </style>
 </defs>
 <path style="fill:currentColor" class="ColorScheme-Text" d="M 9 1 C 7.2820411 1 5.7319841 1.7435897 4.6347656 2.9160156 C 4.6088146 2.9402566 4.5802125 2.9616441 4.5546875 2.9863281 A 6.5 6.5 0 0 1 4.5800781 2.9765625 C 4.4840325 3.0819765 4.3854048 3.184914 4.296875 3.296875 C 4.5153831 3.1240962 4.7511522 2.9739032 4.9921875 2.8320312 A 6.5 6.5 0 0 1 7 2.5039062 A 6.5 6.5 0 0 1 13.5 9.0039062 A 6.5 6.5 0 0 1 13.185547 10.980469 C 13.039478 11.231716 12.882618 11.476126 12.703125 11.703125 C 12.817252 11.612885 12.921982 11.51211 13.029297 11.414062 A 6.5 6.5 0 0 1 13.017578 11.447266 C 13.049618 11.414126 13.078085 11.377606 13.109375 11.34375 C 14.267733 10.247839 15 8.7060947 15 7 C 15 3.7066 12.2934 1 9 1 z M 7 3 C 3.7066 3 1 5.7066 1 9 C 1 12.2934 3.7066 15 7 15 C 10.2934 15 13 12.2934 13 9 C 13 5.7066 10.2934 3 7 3 z M 7 7 C 8.0982925 7 9 7.9016959 9 9 C 9 10.098281 8.0983041 11 7 11 C 5.9017075 11 5.0000001 10.098292 5 9 C 5 7.9017075 5.9016959 7 7 7 z"/>
</svg>

<svg width="16" height="16" version="1.1" xmlns="http://www.w3.org/2000/svg">
  <defs>
    <style id="current-color-scheme" type="text/css">.ColorScheme-Text { color:#ebdbb2; } .ColorScheme-Highlight { color:#458588; }</style>
  </defs>
  <path class="ColorScheme-Text" d="m9 1c-1.287 0.00546-2.538 0.4245-3.568 1.195 0.5137-0.1241 1.04-0.1896 1.568-0.1953 3.866 0 7 3.134 7 7-0.0057 0.5285-0.07121 1.055-0.1953 1.568 0.7708-1.03 1.19-2.281 1.195-3.568 0-3.314-2.686-6-6-6zm-2 2c-3.314 0-6 2.686-6 6s2.686 6 6 6 6-2.686 6-6c-1e-6 -3.314-2.686-6-6-6zm0 4c1.105 0 2 0.8954 2 2s-0.8954 2-2 2c-1.105 0-2-0.8954-2-2 1e-6 -1.105 0.8954-2 2-2z" fill="currentColor"/>
</svg>
